icons/editor-cursor-6-filled.svg

<svg width="25" height="24" viewBox="0 0 25 24" fill="none" xmlns="http://www.w3.org/2000/svg">
<g id="cursor-06">
<path id="Icon" d="M10.3504 19.6331H5.32046C4.12196 19.6331 3.15039 18.6687 3.15039 17.479V4.55448C3.15039 3.36481 4.12196 2.40039 5.32046 2.40039H18.3408C19.5393 2.40039 20.5109 3.36481 20.5109 4.55448V8.40039M18.1012 15.9773L21.8149 14.7209C22.511 14.4854 22.5343 13.5303 21.8504 13.2626L12.6431 9.65799C12.0025 9.40723 11.3618 10.0188 11.602 10.6516L15.1094 19.893C15.3657 20.5684 16.3413 20.5699 16.5998 19.8953L18.1012 15.9773Z" stroke="black" stroke-width="2" stroke-linecap="round" stroke-linejoin="round"/>
</g>
</svg>

<svg xmlns="http://www.w3.org/2000/svg" width="25" height="24" fill="none" viewBox="0 0 25 24"><path stroke="currentColor" stroke-linecap="round" stroke-linejoin="round" stroke-width="2" d="M10.35 19.633H5.32a2.16 2.16 0 0 1-2.17-2.154V4.554c0-1.19.972-2.154 2.17-2.154h13.02c1.2 0 2.17.965 2.17 2.154V8.4m-2.409 7.577 3.714-1.256a.773.773 0 0 0 .035-1.458l-9.207-3.605c-.64-.25-1.281.36-1.041.994l3.507 9.241c.257.675 1.232.677 1.49.002z"/></svg>
